src/categories-icons-sprite/categories/svg-cat-home-bathroom.svg

<svg width="35" height="30" viewBox="0 0 35 30" fill="none" xmlns="http://www.w3.org/2000/svg">
<path class="p-9ABADB" d="M32.0664 17H30.0664V4C30.0664 2.89747 29.1689 2 28.0664 2C26.9639 2 26.0664 2.89747 26.0664 4V5H24.0664V4C24.0664 1.79393 25.8603 0 28.0664 0C30.2725 0 32.0664 1.79393 32.0664 4V17Z" fill="#4D98CB"/>
<path class="p-E0F4FF" d="M28.9896 9.07748H21.1445L22.0671 7C22.0671 5.34573 23.4128 4 25.0671 4C26.7213 4 28.0671 5.34573 28.0671 7L28.9896 9.07748Z" fill="#AFD9F6"/>
<path class="p-E0F4FF" d="M32.0664 17H30.0664V15C30.0664 14.4483 29.6181 14 29.0664 14H26.0664V12H29.0664C30.7207 12 32.0664 13.3457 32.0664 15V17Z" fill="#AFD9F6"/>
<path class="p-BBDCFF" d="M8.06705 27H6.06705L5.14453 30H8.98958L8.06705 27Z" fill="#5FBEFF"/>
<path class="p-9ABADB" d="M30.0671 27H28.0671L27.1445 30H30.9896L30.0671 27Z" fill="#4D98CB"/>
<path class="p-E0F4FF" d="M33.1333 15.9999C31.5933 15.9999 30.1466 16.0199 28.8667 16.0199H28.0667C27.5066 16.0199 27.0667 16.4599 27.0667 17.0199V22.9999H21.0667V16.7999C21.0667 16.2999 20.6867 15.8599 20.1867 15.8199C20.1466 16.7224 20.1067 16.7224 20.0667 15.7999C19.3667 15.7199 18.7067 15.5999 18.0667 15.4599C16.2867 15.0599 14.6667 14.38 12.8267 13.2999C7.30667 9.97993 3 9.95987 1.19993 9.99993H0V10.9999C0 17.4199 0 21.2999 4.16007 27.5599L4.45993 27.9999H31.8133L32.0533 27.3799C33.7934 23.0399 34.1333 20.2799 34.1333 16.9999V15.9999H33.1333Z" fill="#B9DFFC"/>
<path class="p-BBDCFF" d="M34.1331 16V17C34.1331 20.28 33.7931 23.04 32.0531 27.38L31.8131 28H18.0664V15.46C18.7064 15.6 19.3665 15.72 20.0664 15.7999C20.1065 15.7999 20.1463 15.7999 20.1864 15.8199C20.6864 15.86 21.0664 16.2999 21.0664 16.7999V23H27.0664V17.02C27.0664 16.46 27.5063 16.02 28.0664 16.02H28.8665C30.1464 16.02 31.5931 16 33.1331 16H34.1331Z" fill="#A1D1FD"/>
<path class="p-00C0F1" d="M28.0664 16.0199V23.9999H20.0664V15.7998C22.2064 16.0398 24.7064 16.0398 28.0664 16.0199Z" fill="#5FBEFF"/>
</svg>

<svg width="35" height="30" fill="none" xmlns="http://www.w3.org/2000/svg"><path class="p-9ABADB" d="M32.066 17h-2V4c0-1.103-.897-2-2-2-1.102 0-2 .897-2 2v1h-2V4c0-2.206 1.794-4 4-4 2.207 0 4 1.794 4 4v13z" fill="#4D98CB"/><path class="p-E0F4FF" d="M28.99 9.077h-7.845L22.067 7c0-1.654 1.346-3 3-3s3 1.346 3 3l.923 2.077zM32.066 17h-2v-2a1 1 0 00-1-1h-3v-2h3c1.655 0 3 1.346 3 3v2z" fill="#AFD9F6"/><path class="p-BBDCFF" d="M8.067 27h-2l-.922 3H8.99l-.923-3z" fill="#5FBEFF"/><path class="p-9ABADB" d="M30.067 27h-2l-.922 3h3.845l-.923-3z" fill="#4D98CB"/><path class="p-E0F4FF" d="M33.133 16c-1.54 0-2.986.02-4.266.02h-.8c-.56 0-1 .44-1 1V23h-6v-6.2c0-.5-.38-.94-.88-.98-.04.902-.08.902-.12-.02-.7-.08-1.36-.2-2-.34-1.78-.4-3.4-1.08-5.24-2.16C7.307 9.98 3 9.96 1.2 10H0v1c0 6.42 0 10.3 4.16 16.56l.3.44h27.353l.24-.62c1.74-4.34 2.08-7.1 2.08-10.38v-1h-1z" fill="#B9DFFC"/><path class="p-BBDCFF" d="M34.133 16v1c0 3.28-.34 6.04-2.08 10.38l-.24.62H18.066V15.46c.64.14 1.3.26 2 .34.04 0 .08 0 .12.02.5.04.88.48.88.98V23h6v-5.98c0-.56.44-1 1-1h.8c1.28 0 2.727-.02 4.267-.02h1z" fill="#A1D1FD"/><path class="p-00C0F1" d="M28.066 16.02V24h-8v-8.2c2.14.24 4.64.24 8 .22z" fill="#5FBEFF"/></svg>
